outputs/icons/action/love_outline_sharp.svg

<svg xmlns="http://www.w3.org/2000/svg" width="1200" height="1200" fill="none"><g clip-path="url(#a)"><path fill="#000" d="M825 150c-87 0-170.5 40.5-225 104.5-54.5-64-138-104.5-225-104.5-154 0-275 121-275 275 0 189 170 343 427.5 577l72.5 65.5 72.5-66C930 768 1100 614 1100 425c0-154-121-275-275-275M605 927.5l-5 5-5-5C357 712 200 569.5 200 425c0-100 75-175 175-175 77 0 152 49.5 178.5 118H647c26-68.5 101-118 178-118 100 0 175 75 175 175 0 144.5-157 287-395 502.5"/></g><defs><clipPath id="a"><path fill="#fff" d="M0 0h1200v1200H0z"/></clipPath></defs></svg>

<svg width="1200" height="1200" viewBox="0 0 1200 1200" fill="none" xmlns="http://www.w3.org/2000/svg"><g clip-path="url(#clip0_117_761)"><path d="M825 150C738 150 654.5 190.5 600 254.5C545.5 190.5 462 150 375 150C221 150 100 271 100 425C100 614 270 768 527.5 1002L600 1067.5L672.5 1001.5C930 768 1100 614 1100 425C1100 271 979 150 825 150ZM605 927.5L600 932.5L595 927.5C357 712 200 569.5 200 425C200 325 275 250 375 250C452 250 527 299.5 553.5 368H647C673 299.5 748 250 825 250C925 250 1000 325 1000 425C1000 569.5 843 712 605 927.5Z" fill="black"/></g><defs><clipPath id="clip0_117_761"><path width="24" fill="white" d="M0 0H1200V1200H0V0z"/></clipPath></defs></svg>
